public/pixelarticons/star.svg

<svg xmlns="http://www.w3.org/2000/svg" width="24" height="24" fill="currentColor" viewBox="0 0 24 24"><path d="M5 20h3v2H3v-6h2zm16 2h-5v-2h3v-4h2zm-11-2H8v-2h2zm6 0h-2v-2h2zm-2-2h-4v-2h4zm-7-2H5v-3h2zm12 0h-2v-3h2zM5 13H3v-2h2zm16 0h-2v-2h2zM9 9H3v2H1V7h8zm14 2h-2V9h-6V7h8zM11 7H9V3h2zm4 0h-2V3h2zm-2-4h-2V1h2z"/></svg>

<svg xmlns="http://www.w3.org/2000/svg" width="24" height="24" fill="currentColor" viewBox="0 0 24 24">
<path d="M5 20H8V22H3V16H5V20ZM21 22H16V20H19V16H21V22ZM10 20H8V18H10V20ZM16 20H14V18H16V20ZM14 18H10V16H14V18ZM7 16H5V13H7V16ZM19 16H17V13H19V16ZM5 13H3V11H5V13ZM21 13H19V11H21V13ZM9 9H3V11H1V7H9V9ZM23 11H21V9H15V7H23V11ZM11 7H9V3H11V7ZM15 7H13V3H15V7ZM13 3H11V1H13V3Z"/>
</svg>
